assets/features/payment-flow/QRIS.svg

<svg width="200" height="200" viewBox="0 0 200 200" fill="none" xmlns="http://www.w3.org/2000/svg">
<rect x="0.5" y="0.5" width="199" height="199" rx="39.5" fill="white"/>
<rect x="0.5" y="0.5" width="199" height="199" rx="39.5" stroke="#FCFCFC"/>
<g clip-path="url(#clip0_148_40)">
<path d="M173.445 106.165V101.086V90.939H158.208H148.048V85.8602H173.445V75.708H148.048H132.811V85.8602V90.939V101.086H148.048H158.208V106.165H132.811V116.317H158.208H173.445V106.165Z" fill="#010101"/>
<path d="M127.733 75.708H117.573V116.311H127.733V75.708Z" fill="#010101"/>
<path d="M71.8613 75.708V85.8602H102.336V90.939H82.016H71.8613V101.086V116.317H82.016V101.24L97.2587 116.317H112.496L96.5973 101.086H102.336H112.496V90.939V85.8602V75.708H102.336H71.8613Z" fill="#010101"/>
<path d="M41.3813 101.086H51.5147V90.96H41.3813V101.086ZM43.9253 93.4754H49.0027V98.5488H43.9253V93.4754Z" fill="#010101"/>
<path d="M36.304 75.708H27.4134C27.0774 75.7106 26.7558 75.8445 26.5174 76.0811C26.3988 76.1992 26.3047 76.3395 26.2407 76.4941C26.1766 76.6487 26.1438 76.8144 26.144 76.9817V115.043C26.1438 115.21 26.1766 115.376 26.2407 115.531C26.3047 115.685 26.3988 115.826 26.5174 115.944C26.7563 116.179 27.078 116.311 27.4134 116.311H51.5414V106.186H36.304V75.708Z" fill="#010101"/>
<path d="M65.5093 75.708H41.3813V85.8602H56.624V101.086H66.7573V76.9817C66.7605 76.6464 66.6322 76.3231 66.4 76.0811C66.162 75.8472 65.8431 75.7136 65.5093 75.708Z" fill="#010101"/>
<path d="M66.784 106.164H56.624V129.005H66.784V106.164Z" fill="#010101"/>
<path d="M40.32 70H21.2693C20.9331 70.0014 20.6111 70.1355 20.3733 70.373C20.1356 70.6106 20.0014 70.9324 20 71.2684V90.3044H22.5387V73.7838C22.5456 73.4515 22.6823 73.1351 22.9194 72.9022C23.1565 72.6692 23.4754 72.538 23.808 72.5367H40.3413L40.32 70Z" fill="#010101"/>
<path d="M177.461 102.988V119.509C177.46 119.845 177.326 120.167 177.088 120.404C176.85 120.642 176.528 120.776 176.192 120.777H159.659V123.293H178.709C178.878 123.295 179.045 123.264 179.201 123.201C179.357 123.138 179.499 123.045 179.619 122.927C179.739 122.809 179.835 122.669 179.9 122.514C179.965 122.359 179.999 122.192 180 122.024V102.988H177.461Z" fill="#010101"/>
</g>
<defs>
<clipPath id="clip0_148_40">
<rect width="160" height="59" fill="white" transform="translate(20 70)"/>
</clipPath>
</defs>
</svg>

<svg xmlns="http://www.w3.org/2000/svg" width="200" height="200" fill="none" viewBox="0 0 200 200"><rect width="199" height="199" x=".5" y=".5" fill="#fff" rx="39.5"/><rect width="199" height="199" x=".5" y=".5" stroke="#fcfcfc" rx="39.5"/><g fill="#010101" clip-path="url(#a)"><path d="M173.445 106.165V90.939h-25.397V85.86h25.397V75.708h-40.634v25.378h25.397v5.079h-25.397v10.152h40.634zm-45.712-30.457h-10.16v40.603h10.16zm-55.872 0V85.86h30.475v5.079H71.861v25.378h10.155V101.24l15.243 15.077h15.237l-15.899-15.231h15.899V75.708zm-30.48 25.378h10.134V90.96H41.38zm2.544-7.61h5.078v5.073h-5.078z"/><path d="M36.304 75.708h-8.89a1.29 1.29 0 0 0-1.173.786q-.096.234-.097.488v38.061a1.27 1.27 0 0 0 .373.901c.24.235.561.367.896.367h24.128v-10.125H36.304zm29.206 0H41.38V85.86h15.243v15.226h10.133V76.982a1.28 1.28 0 0 0-.357-.9 1.3 1.3 0 0 0-.89-.374m1.275 30.456h-10.16v22.841h10.16z"/><path d="M40.32 70H21.27A1.275 1.275 0 0 0 20 71.268v19.036h2.539v-16.52a1.273 1.273 0 0 1 1.269-1.247h16.533zm137.141 32.988v16.521a1.27 1.27 0 0 1-1.269 1.268h-16.533v2.516h19.05a1.27 1.27 0 0 0 1.291-1.269v-19.036z"/></g><defs><clipPath id="a"><path fill="#fff" d="M20 70h160v59H20z"/></clipPath></defs></svg>
